X:1
T:Gregg's Pipes
T:Craig's Pipes
T:Kerry Huntsman, The
R:reel
S:Mike McHale workshop - East Durham July 2000
Z:Michael Hogan <Michael.Hogan@unilever.com> irtrad-l 2001-01-03
M:C|
L:1/8
K:G
B3 B{d} BAGA | B2GB AGED | B2dB{d} BAGB | A2 BG AGed |
B3 B{d} BAGA | B2GB AGED | (3Bcd ed BedB | AcBG AGEG ||
DG ~G2 DGBG | GABG AGEG | DG ~G2 d3 B | dBAc BG~G2 |
DG ~G2 DGBG | d2BG AGEG | DG ~G2 d3 B | dBAc BG~G2 ||
d2 (3Bcd e2ge | d2BG AGEG | d2Bd eg ~g2 | a2bg ageg |
d2 (3Bcd e2ge | d2BG AGEG | d2Bd eg ~g2 | a2bg aged ||
